images/image-bg.svg

<svg id="Layer_1" xmlns="http://www.w3.org/2000/svg" width="460" height="250" viewBox="0 0 460 250"><style>.st0{fill:#f9f9f9}.st1{fill:#e2e2e2}</style><path class="st0" d="M0 0h460v250H0z"/><path class="st1" d="M287.4 72.9h-13.6l-.9-5.5c-.2-1.1-1.2-1.9-2.3-1.9h-.4l-44.7 7.4H188c-1.3 0-2.5 1.1-2.5 2.5v4.1l-13.6 2.2c-1.2.2-2.1 1.4-1.9 2.6l16.2 98.2c.2 1.1 1.2 1.9 2.3 1.9h.4l44.7-7.4h53.7c1.3 0 2.5-1.1 2.5-2.5V75.3c.1-1.3-1.1-2.4-2.4-2.4zm-52.7 30c0 4.7-3.8 8.4-8.4 8.4-4.7 0-8.5-3.7-8.5-8.4 0-4.6 3.8-8.4 8.5-8.4 4.6 0 8.4 3.8 8.4 8.4zm-13.5 13.7l13 14 17.3-24.1 23.1 35.7h-69.9l16.5-25.6zm49.2-48.4l.8 4.7h-29.6l28.8-4.7zm-84.8 13.9v80.6l-13.2-78.4 13.2-2.2zm3.3 100.1l-.9-5.1h31l-30.1 5.1z"/></svg>

<?xml version="1.0" encoding="utf-8"?>
<!-- Generator: Adobe Illustrator 19.2.1, SVG Export Plug-In . SVG Version: 6.00 Build 0)  -->
<!DOCTYPE svg PUBLIC "-//W3C//DTD SVG 1.1//EN" "http://www.w3.org/Graphics/SVG/1.1/DTD/svg11.dtd">
<svg version="1.1" id="Layer_1" xmlns="http://www.w3.org/2000/svg" xmlns:xlink="http://www.w3.org/1999/xlink" x="0px" y="0px"
	 width="460px" height="250px" viewBox="0 0 460 250" style="enable-background:new 0 0 460 250;" xml:space="preserve">
<style type="text/css">
	.st0{fill:#F9F9F9;}
	.st1{fill:#E2E2E2;}
</style>
<rect class="st0" width="460" height="250"/>
<path class="st1" d="M287.4,72.9h-13.6l-0.9-5.5c-0.2-1.1-1.2-1.9-2.3-1.9c-0.1,0-0.2,0-0.4,0l-44.7,7.4h-37.5
	c-1.3,0-2.5,1.1-2.5,2.5v4.1l-13.6,2.2c-1.2,0.2-2.1,1.4-1.9,2.6l16.2,98.2c0.2,1.1,1.2,1.9,2.3,1.9c0.1,0,0.2,0,0.4,0l44.7-7.4
	h53.7c1.3,0,2.5-1.1,2.5-2.5V75.3C289.9,74,288.7,72.9,287.4,72.9z M234.7,102.9c0,4.7-3.8,8.4-8.4,8.4c-4.7,0-8.5-3.7-8.5-8.4
	c0-4.6,3.8-8.4,8.5-8.4C230.9,94.5,234.7,98.3,234.7,102.9z M221.2,116.6l13,14l17.3-24.1l23.1,35.7h-69.9L221.2,116.6z M270.4,68.2
	l0.8,4.7h-29.6L270.4,68.2z M185.6,82.1v80.6l-13.2-78.4L185.6,82.1z M188.9,182.2l-0.9-5.1c0,0,0,0,0,0H219L188.9,182.2z"/>
<g>
</g>
<g>
</g>
<g>
</g>
<g>
</g>
<g>
</g>
<g>
</g>
<g>
</g>
<g>
</g>
<g>
</g>
<g>
</g>
<g>
</g>
<g>
</g>
<g>
</g>
<g>
</g>
<g>
</g>
</svg>
